svgs/light/paperclip.svg

<svg xmlns="http://www.w3.org/2000/svg" viewBox="0 0 448 512"><!--! Font Awesome Pro 6.1.1 by @fontawesome - https://fontawesome.com License - https://fontawesome.com/license (Commercial License) Copyright 2022 Fonticons, Inc. --><path d="M380.7 67.31C351.6 38.22 304.4 38.22 275.3 67.31L83.31 259.3C36.54 306.1 36.54 381.9 83.31 428.7C130.1 475.5 205.9 475.5 252.7 428.7L404.7 276.7C410.9 270.4 421.1 270.4 427.3 276.7C433.6 282.9 433.6 293.1 427.3 299.3L275.3 451.3C216 510.6 119.1 510.6 60.69 451.3C1.417 392 1.418 295.1 60.69 236.7L252.7 44.69C294.3 3.092 361.7 3.092 403.3 44.69C444.9 86.28 444.9 153.7 403.3 195.3L219.5 379.1C191.3 407.3 144.9 404.7 119.1 373.6C98.67 346.1 100.8 308.6 124.9 284.5L276.7 132.7C282.9 126.4 293.1 126.4 299.3 132.7C305.6 138.9 305.6 149.1 299.3 155.3L147.5 307.1C134.1 319.7 133.8 339.7 144.1 353.6C157.1 369.8 182.2 371.2 196.9 356.5L380.7 172.7C409.8 143.6 409.8 96.41 380.7 67.31L380.7 67.31z"/></svg>

<svg xmlns="http://www.w3.org/2000/svg" viewBox="0 0 448 512"><!--! Font Awesome Pro 6.5.1 by @fontawesome - https://fontawesome.com License - https://fontawesome.com/license (Commercial License) Copyright 2023 Fonticons, Inc. --><path d="M380.7 67.3c-29.1-29.1-76.3-29.1-105.4 0l-192 192c-46.8 46.8-46.8 122.6 0 169.4s122.6 46.8 169.4 0l152-152c6.2-6.2 16.4-6.2 22.6 0s6.2 16.4 0 22.6l-152 152c-59.3 59.3-155.4 59.3-214.6 0S1.4 296 60.7 236.7l192-192c41.6-41.6 109-41.6 150.6 0s41.6 109 0 150.6L219.5 379.1c-28.2 28.2-74.6 25.6-99.6-5.5c-21.3-26.6-19.2-65 4.9-89.1L276.7 132.7c6.2-6.2 16.4-6.2 22.6 0s6.2 16.4 0 22.6L147.5 307.1c-12.6 12.6-13.7 32.6-2.6 46.5c13 16.2 37.2 17.6 51.9 2.9L380.7 172.7c29.1-29.1 29.1-76.3 0-105.4z"/></svg>
